!!!!SEGMENT: pl-kk--kk-i-40--009-004_lasso-orlando-di--missa-sexti-toni-agnus-dei.krn
!!!cenid: 16xx:1313
!!!COM: Lasso, Orlando di
!!!COM-rismid: pe506
!!!CDT: ~1532-1594/06/14
!!!CNT: French-Flemish
!!!OPR: Missa Sexti Toni
!!!OTL: Agnus Dei
!!!OMV: 004
!!!PDT:
!!!AGN: Sacred; Mass
!!!SMS-siglum: PL-Kk
!!!SMS-shelfmark: Kk.I.40
!!!SMS-shelfwork: 009-004 M
!!!SMS-variant:
!!!SMS-altvar:
!!!NIFC-rismid: 1001154531
!!!URL-scan: http://repozytorium.nifc.pl/skany/pl-kk-nut--i-40
!!!ONB-nifc: UWAGA: części Mszy: 1. Kyrie, 2. Et in terra, 3. Sanctus, 4. Agnus Dei. Skan 0012-0013
!!!AIN: 1 empty
!!!key:
**kern	**text
*Iempty	*
*I"Baſso Ripieno.	*
*I'B rip	*
*clefF4	*
*k[b-]	*
*b-:	*
*M2/1	*
*met(C|)	*
=1-	=1-
!LO:TX:t=P:problem=przy kluczu BB- B-	!
00r	.
=2-	=2-
.	.
=3-	=3-
!LO:TX:t=P:problem=kreska pseudotaktowa	!
1r	.
*2\right	*
2.F\	A-
4E\	.
=4-	=4-
2D/	.
!LO:TX:t=P:problem=kreska pseudotaktowa	!
2C/	-gn(us)
2D\	De-
2E\	.
=5-	=5-
!LO:TX:t=P:problem=kreska pseudotaktowa	!
!LO:TX:t=P:global:problem=oddech/cezura na różnej wysokości	!
1F,<	-i
0r	.
=6-	=6-
.	.
*	*ij
2.C/	A-
4BB-/	.
=7-	=7-
2AA/	.
!LO:TX:t=P:problem=kreska pseudotaktowa	!
2GG/	-gn(us)
2AA/	De-
2BB-/	.
=8-	=8-
!LO:TX:t=P:problem=kreska pseudotaktowa	!
1C	-i
*	*Xij
2r	.
1F\	A-
=9-	=9-
.	.
2E\	-gn(us)
1D	De-
=10-	=10-
!LO:TX:t=P:problem=kreska pseudotaktowa	!
1C	-i
4r	.
4F\	qui
4F\	tol-
!LO:TX:t=P:problem=kreska pseudotaktowa	!
4F\	-lis
=11-	=11-
2E\	p(ec)-
!LO:TX:t=P:problem=kreska pseudotaktowa	!
2F\	-c(a)-
2D,</	-ta
2C/	mun-
=12-	=12-
2BB-,</	-di
2D/	qui
2C/	tol-
!LO:TX:t=P:problem=kreska pseudotaktowa	!
2F\	-lis
=13-	=13-
2G\	p(ec)-
4C/	-c(a)-
4C/	-ta
2D/	mun-
!LO:TX:t=P:problem=kreska pseudotaktowa	!
2GG/	-di
!LO:LB:g=original	!
=14-	=14-
2r	.
*	*ij
!LO:TX:t=P:problem=kreska pseudotaktowa	!
2D\	qui
4D/	tol-
4D/	-lis
!LO:TX:t=P:problem=kreska pseudotaktowa	!
2C#X/	p(ec)-
=15-	=15-
2D/	-c(a)-
2BB-/	-ta
2AA/	mun-
!LO:TX:t=P:problem=kreska pseudotaktowa	!
2D\	-di
*	*Xij
=16-	=16-
1r	.
2BB-/	qui
4BB-/	tol-
!LO:TX:t=P:problem=kreska pseudotaktowa	!
4BB-/	-lis
=17-	=17-
2AA/	p(ec)-
2BB-/	-c(a)-
2Cny/	-ta
!LO:TX:t=P:problem=kreska pseudotaktowa	!
2GG/	mun-
=18-	=18-
2C,</	-di
4C/	mi-
!LO:TX:t=P:problem=kreska pseudotaktowa	!
4F\	-ſe-
4C/	-re-
4C/	-re
2GG/	no-
=19-	=19-
!LO:TX:t=P:problem=kreska pseudotaktowa	!
1C,<	-bis
*	*ij
2.F\	mi-
4C/	-ſe-
=20-	=20-
4F\	-re-
4BB-/	-re
!LO:TX:t=P:problem=kreska pseudotaktowa	!
2C/	no-
!LO:TX:t=P:problem=kreska pseudotaktowa	!
1F,<	-bis
*	*Xij
=21-	=21-
2.F\	mi-
4C/	-ſe-
4F\	-re-
4BB-/	-re
2C/	no-
=22-	=22-
!LO:TX:t=P:problem=kreska pseudotaktowa	!
1F	-bis
*	*ij
2.BB-/	mi-
4F\	-ſe-
=23-	=23-
2BB-/	-re-
2AA/	-re
1BB-	no-
=24-	=24-
0Fl;	-bis
*	*Xij
!LO:LB:g=original	!
=25||	=25||
*M2/1	*
*met(C|)	*
2F\	A-
!LO:TX:t=P:problem=kreska pseudotaktowa	!
2F\	-gnus
2F\	De-
4E\	-i
4E\	qui
=26-	=26-
(2F\	tol-
2D\)	.
!LO:TX:t=P:problem=kreska pseudotaktowa	!
1C	-lis!
=27-	=27-
!LO:TX:t=P:problem=kreska pseudotaktowa	!
0r	.
=28-	=28-
2BB-/	mi-
!LO:TX:t=P:problem=kreska pseudotaktowa	!
2F\	-ſe-
2BB-/	-re-
!LO:TX:t=P:problem=kreska pseudotaktowa	!
2F\	-re
=29-	=29-
2C/	no-
2D/	.
2GG,</	-bis
2G\	mi-
=30-	=30-
!LO:TX:t=P:problem=kreska pseudotaktowa	!
1C	-ſe-
1BB-	-re-
=31-	=31-
!LO:TX:t=P:problem=kreska pseudotaktowa	!
0F,<	-re
=32-	=32-
0C	no-
=33-	=33-
!LO:TX:a:Bi:t=Agnus 3tium\nUt supra	!
0Fl;	-bis.
==	==
*-	*-
!!!RDF**kern: < = below
!!!RDF**kern: l = terminal long
!!!ENC: Andrzej Kubiczek
!!!END: 2021-08-02
!!!ENC: Katarzyna Serwa
!!!END: 2021-07-05
